Sources/FrostedUI/Resources/Icons.xcassets/upinTilted24.imageset/upin-tilted-24.svg

<svg width="24" height="24" viewBox="0 0 24 24" fill="none" xmlns="http://www.w3.org/2000/svg" data-fui-icon="true">
  <path
    d="M1.21973 1.21973C1.51262 0.926834 1.98738 0.926833 2.28027 1.21973L22.7803 21.7197C23.0731 22.0126 23.0731 22.4874 22.7803 22.7803C22.4874 23.0731 22.0126 23.0731 21.7197 22.7803L16.7878 17.8484C16.6301 17.6906 16.3614 17.7541 16.291 17.9658L15.7314 19.6484C15.0378 21.7286 12.3973 22.3513 10.8467 20.8008L7.74146 17.6965C7.62428 17.5793 7.43434 17.5794 7.3172 17.6965L3.99414 21.0205C3.70133 21.3131 3.22644 21.313 2.93359 21.0205C2.64071 20.7276 2.64073 20.2519 2.93359 19.959L6.25662 16.636C6.37378 16.5188 6.37378 16.3289 6.25662 16.2117L3.15234 13.1074C1.60179 11.5567 2.22528 8.91613 4.30566 8.22266L5.98704 7.66143C6.19853 7.59084 6.26184 7.32239 6.10419 7.16473L1.21973 2.28027C0.926833 1.98738 0.926833 1.51262 1.21973 1.21973ZM4.78027 9.64551C3.75775 9.98637 3.45082 11.2847 4.21289 12.0469L11.9072 19.7402C12.6694 20.5022 13.9666 20.1961 14.3076 19.1738L15.2002 16.4952C15.2361 16.3874 15.208 16.2686 15.1277 16.1882L7.76489 8.82544C7.68454 8.74509 7.56569 8.71703 7.45789 8.75297L4.78027 9.64551ZM12.6914 2.77734C13.8435 1.6253 15.7112 1.6253 16.8633 2.77734L21.1768 7.08984C22.3287 8.2418 22.3285 10.1097 21.1768 11.2617L18.0119 14.4265C17.8948 14.5437 17.7048 14.5437 17.5877 14.4265L16.9514 13.7903C16.8342 13.6731 16.8342 13.4832 16.9514 13.366L20.1162 10.2012C20.6822 9.63489 20.6824 8.71656 20.1162 8.15039L15.8027 3.83789C15.2365 3.27163 14.3182 3.27163 13.752 3.83789L10.5871 7.0018C10.47 7.11892 10.28 7.11891 10.1629 7.00177L9.52662 6.36548C9.40945 6.24831 9.40946 6.05834 9.52665 5.94119L12.6914 2.77734Z"
    fill="currentColor"
  />
</svg>

<svg xmlns="http://www.w3.org/2000/svg" width="24" height="24" fill="none" data-fui-icon="true" viewBox="0 0 24 24"><path fill="currentColor" d="M1.22 1.22a.75.75 0 0 1 1.06 0l20.5 20.5a.75.75 0 0 1-1.06 1.06l-4.932-4.932a.3.3 0 0 0-.497.118l-.56 1.682c-.693 2.08-3.334 2.703-4.884 1.153L7.74 17.697a.3.3 0 0 0-.424 0L3.994 21.02a.75.75 0 0 1-1.06-1.061l3.323-3.323a.3.3 0 0 0 0-.424l-3.105-3.105c-1.55-1.55-.927-4.19 1.154-4.884l1.681-.562a.3.3 0 0 0 .117-.496L1.22 2.28a.75.75 0 0 1 0-1.06m3.56 8.426a1.45 1.45 0 0 0-.567 2.4l7.694 7.694a1.45 1.45 0 0 0 2.4-.566l.893-2.679a.3.3 0 0 0-.072-.307L7.765 8.825a.3.3 0 0 0-.307-.072zm7.911-6.869a2.95 2.95 0 0 1 4.172 0l4.314 4.313a2.95 2.95 0 0 1 0 4.172l-3.165 3.165a.3.3 0 0 1-.424 0l-.637-.637a.3.3 0 0 1 0-.424l3.165-3.165a1.45 1.45 0 0 0 0-2.05l-4.313-4.313a1.45 1.45 0 0 0-2.051 0l-3.165 3.164a.3.3 0 0 1-.424 0l-.636-.637a.3.3 0 0 1 0-.424z"/></svg>
